static/images/networks/rootstock.svg

<svg xmlns="http://www.w3.org/2000/svg" fill="none" viewBox="0 0 512 512"><path fill="#000" fill-rule="evenodd" d="M512 256c0 141.385-114.615 256-256 256S0 397.385 0 256 114.615 0 256 0s256 114.615 256 256Z" clip-rule="evenodd"/><path fill="#FAF9F5" d="M256 175c27.613 0 50-22.386 50-50s-22.387-50-50-50c-27.614 0-50 22.386-50 50s22.386 50 50 50Z"/><path fill="#FAF9F5" d="M395.889 279.1c-24.032-13.707-54.8-5.592-68.637 18.217a49.525 49.525 0 0 0-6.736 25.972c.547 22.005-19.479 33.368-38.414 22.005-.728-.362-1.456-.902-2.367-1.263-19.115-10.641-19.115-33.186 0-43.647 15.658-8.478 26.399-24.891 26.399-43.829v-1.082c-.546-22.005 19.48-33.367 38.415-22.005 15.11 9.199 34.773 9.921 51.157.542 24.032-13.708 32.225-44.19 18.389-67.997-13.837-23.808-44.605-31.925-68.637-18.217-16.384 9.379-25.488 26.694-25.123 44.189.546 22.004-19.481 33.368-38.233 22.004a49.845 49.845 0 0 0-26.216-7.395c-9.65 0-18.57 2.706-26.217 7.215-18.933 11.182-38.778-.181-38.232-22.005.365-17.675-8.738-34.81-25.123-44.188-24.032-13.708-54.8-5.411-68.636 18.397-13.837 23.807-5.462 54.289 18.57 67.997 16.385 9.379 36.047 8.476 51.158-.542 18.934-11.362 38.778 0 38.232 22.005v1.082c0 18.938 10.559 35.351 26.399 43.829 19.115 10.641 19.115 33.186 0 43.647-.729.361-1.457.901-2.185 1.263-18.934 11.183-38.779-.181-38.232-22.005.182-8.837-2.003-17.856-6.737-26.152-13.836-23.809-44.604-31.925-68.635-18.217-24.032 14.068-32.225 44.549-18.388 68.358 13.836 23.808 44.604 31.924 68.636 18.216.364-.18.546-.36.91-.541 18.934-11.363 38.778 0 38.232 22.004v1.262c0 27.416 22.575 49.781 50.248 49.781s50.248-22.365 50.248-49.781v-1.081c-.546-22.004 19.48-33.367 38.415-22.004.363.18.728.36 1.092.722 24.031 13.706 54.799 5.59 68.635-18.218 13.837-24.349 5.644-54.83-18.387-68.538Z"/></svg>

<svg width="512" height="512" viewBox="0 0 512 512" fill="none" xmlns="http://www.w3.org/2000/svg">
<path fill-rule="evenodd" clip-rule="evenodd" d="M512 256C512 397.385 397.385 512 256 512C114.615 512 0 397.385 0 256C0 114.615 114.615 0 256 0C397.385 0 512 114.615 512 256Z" fill="black"/>
<path d="M256 175C283.613 175 306 152.614 306 125C306 97.3858 283.613 75 256 75C228.386 75 206 97.3858 206 125C206 152.614 228.386 175 256 175Z" fill="#FAF9F5"/>
<path d="M395.889 279.1C371.857 265.393 341.089 273.508 327.252 297.317C322.52 305.433 320.335 314.452 320.516 323.289C321.063 345.294 301.037 356.657 282.102 345.294C281.374 344.932 280.646 344.392 279.735 344.031C260.62 333.39 260.62 310.845 279.735 300.384C295.393 291.906 306.134 275.493 306.134 256.555C306.134 256.194 306.134 255.833 306.134 255.473C305.588 233.468 325.614 222.106 344.549 233.468C359.659 242.667 379.322 243.389 395.706 234.01C419.738 220.302 427.931 189.82 414.095 166.013C400.258 142.205 369.49 134.088 345.458 147.796C329.074 157.175 319.97 174.49 320.335 191.985C320.881 213.989 300.854 225.353 282.102 213.989C274.456 209.3 265.534 206.594 255.886 206.594C246.236 206.594 237.316 209.3 229.669 213.809C210.736 224.991 190.891 213.628 191.437 191.804C191.802 174.129 182.699 156.994 166.314 147.616C142.282 133.908 111.514 142.205 97.6777 166.013C83.8413 189.82 92.2159 220.302 116.248 234.01C132.633 243.389 152.295 242.486 167.406 233.468C186.34 222.106 206.184 233.468 205.638 255.473C205.638 255.833 205.638 256.194 205.638 256.555C205.638 275.493 216.197 291.906 232.037 300.384C251.152 311.025 251.152 333.57 232.037 344.031C231.308 344.392 230.58 344.932 229.852 345.294C210.918 356.477 191.073 345.113 191.62 323.289C191.802 314.452 189.617 305.433 184.883 297.137C171.047 273.328 140.279 265.212 116.248 278.92C92.2159 292.988 84.0233 323.469 97.8597 347.278C111.696 371.086 142.464 379.202 166.496 365.494C166.86 365.314 167.042 365.134 167.406 364.953C186.34 353.59 206.184 364.953 205.638 386.957C205.638 387.318 205.638 387.679 205.638 388.219C205.638 415.635 228.213 438 255.886 438C283.559 438 306.134 415.635 306.134 388.219C306.134 387.859 306.134 387.499 306.134 387.138C305.588 365.134 325.614 353.771 344.549 365.134C344.912 365.314 345.277 365.494 345.641 365.856C369.672 379.562 400.44 371.446 414.276 347.638C428.113 323.289 419.92 292.808 395.889 279.1Z" fill="#FAF9F5"/>
</svg>
